X:92
T:Fiery Clock Face
R:jig 32
M:6/8
L:1/8
Q:1/4=140
K:D
|:A|dcd D2E|F2G A2B|=cBc E2F|G2A B2c|
dcd D2E|F2G A2A|Bcd e2c|d3 d2:|!
|:D/E/|F2F DEF|G2F E2D|C2B, A,2B,|C2D E2^E|
F2F DEF|G2F E2D|CB,A, B,2C|D3 D2:|]
" variant"
|:A|d2d D2E|F2G A2B|=c2=c E2F|G2A B2c|
d2d D2E|F2G A2A|Bcd edc|d3 d2:|
|:e|f2f def|g2f e2d|c2B A2B|c2d e2e|
f2f def|g2f e2d|cBA B2c|d3 d2:|]

